assets/cards-tab/Asset/transactions.svg

<svg width="13" height="11" viewBox="0 0 13 11" fill="none" xmlns="http://www.w3.org/2000/svg">
<g clip-path="url(#clip0_507_2317)">
<path fill-rule="evenodd" clip-rule="evenodd" d="M2.1056 2.05343V2.0429C2.1056 1.62651 2.61057 1.41971 2.90264 1.71648C3.08496 1.90173 3.38368 1.90173 3.566 1.71648L3.85345 1.42441C4.13357 1.13978 4.59253 1.13978 4.87265 1.42441L4.98217 1.53569C5.26229 1.82032 5.72126 1.82032 6.00137 1.53569L6.1109 1.42441C6.39102 1.13978 6.84998 1.13978 7.1301 1.42441L7.41754 1.71648C7.59986 1.90173 7.89858 1.90173 8.0809 1.71648C8.37298 1.41971 8.87795 1.62651 8.87795 2.0429V2.05422C9.13561 4.75703 9.14805 6.27437 8.87795 8.93411V8.94538C8.87795 9.36177 8.37298 9.56858 8.0809 9.27181C7.89858 9.08655 7.59986 9.08655 7.41754 9.27181L7.1301 9.56388C6.84998 9.8485 6.39102 9.8485 6.1109 9.56388L6.00137 9.45259C5.72126 9.16796 5.26229 9.16796 4.98217 9.45259L4.87265 9.56388C4.59253 9.8485 4.13357 9.8485 3.85345 9.56388L3.566 9.27181C3.38368 9.08655 3.08496 9.08655 2.90264 9.27181C2.61057 9.56858 2.1056 9.36177 2.1056 8.94538V8.93485C1.86626 6.24754 1.86591 4.74074 2.1056 2.05343ZM6.37391 4.53101H6.65955C6.80879 4.53101 6.93089 4.64893 6.93089 4.79305C6.93089 4.93717 6.80879 5.05509 6.65955 5.05509H6.42892C6.35112 5.05509 6.28492 5.10944 6.25838 5.18257C6.1012 5.61557 5.67556 5.92769 5.17533 5.92769C5.06978 5.92769 5.01215 6.05082 5.07977 6.13187L6.04632 7.29031C6.14129 7.40299 6.1223 7.56807 6.00562 7.65979C5.95407 7.69909 5.89437 7.71744 5.83468 7.71744C5.75599 7.71744 5.6773 7.68599 5.62304 7.62048L4.13067 5.83074C4.06555 5.75212 4.05198 5.64469 4.09811 5.55297C4.14153 5.46126 4.23921 5.40361 4.34232 5.40361H5.17533C5.32728 5.40361 5.46587 5.34903 5.5715 5.25941C5.66388 5.18104 5.58895 5.05509 5.4678 5.05509H4.34232C4.19308 5.05509 4.07098 4.93717 4.07098 4.79305C4.07098 4.64893 4.19308 4.53101 4.34232 4.53101H5.40094C5.53077 4.53101 5.60068 4.39122 5.48945 4.32425C5.39807 4.26923 5.29071 4.23752 5.17533 4.23752H4.34232C4.19308 4.23752 4.07098 4.1196 4.07098 3.97548C4.07098 3.83136 4.19308 3.71344 4.34232 3.71344H6.65955C6.80879 3.71344 6.93089 3.83136 6.93089 3.97548C6.93089 4.1196 6.80879 4.23752 6.65955 4.23752H6.37742C6.2788 4.23752 6.21555 4.34812 6.25001 4.44052C6.2695 4.49277 6.31814 4.53101 6.37391 4.53101Z" fill="white"/>
</g>
<defs>
<clipPath id="clip0_507_2317">
<rect width="8.58" height="8.58" fill="white" transform="translate(1.21094 1.21094)"/>
</clipPath>
</defs>
</svg>

<svg xmlns="http://www.w3.org/2000/svg" width="13" height="11" fill="none" viewBox="0 0 13 11"><g clip-path="url(#a)"><path fill="#fff" fill-rule="evenodd" d="M2.106 2.053v-.01c0-.416.505-.623.797-.327a.465.465 0 0 0 .663 0l.287-.292a.715.715 0 0 1 1.02 0l.11.112a.715.715 0 0 0 1.018 0l.11-.112a.715.715 0 0 1 1.02 0l.287.292a.465.465 0 0 0 .663 0 .465.465 0 0 1 .797.327v.011c.258 2.703.27 4.22 0 6.88v.011a.465.465 0 0 1-.797.327.465.465 0 0 0-.663 0l-.288.292a.715.715 0 0 1-1.02 0l-.109-.111a.715.715 0 0 0-1.019 0l-.11.11a.715.715 0 0 1-1.019 0l-.287-.291a.465.465 0 0 0-.663 0 .465.465 0 0 1-.797-.327v-.01c-.24-2.687-.24-4.194 0-6.882m4.268 2.478h.286c.149 0 .27.118.27.262a.27.27 0 0 1-.27.262h-.231a.19.19 0 0 0-.17.128 1.15 1.15 0 0 1-1.084.745.124.124 0 0 0-.095.204l.966 1.158a.256.256 0 0 1-.04.37.28.28 0 0 1-.383-.04L4.131 5.83a.25.25 0 0 1-.033-.277.27.27 0 0 1 .244-.15h.833a.6.6 0 0 0 .397-.144c.092-.078.017-.204-.104-.204H4.342a.27.27 0 0 1-.271-.262c0-.144.122-.262.271-.262h1.059c.13 0 .2-.14.088-.207a.6.6 0 0 0-.314-.086h-.833a.27.27 0 0 1-.271-.263c0-.144.122-.262.271-.262H6.66c.149 0 .27.118.27.262a.27.27 0 0 1-.27.263h-.283c-.098 0-.161.11-.127.203.02.052.068.09.124.09" clip-rule="evenodd"/></g><defs><clipPath id="a"><path fill="#fff" d="M1.21 1.21h8.58v8.58H1.21z"/></clipPath></defs></svg>
